!!!OTL: DA STEH I HIER OBEN
!!!ARE: Europa, Mitteleuropa, Deutschland, Ober - Bayern
!!!SCT: E0571
!!!YEM: Copyright 1995, estate of Helmut Schaffrath.
**kern
*ICvox
*Ivox
*M3/4
*k[f#]
*G:
{8b
=1
4b
4.a
8ee
=2
8ee
8dd
4.b}
{8cc
=3
8b
8a
4.e
8f#
=4
4g
4d
8r}
{8b
=5
4b
4.a
8ee
=6
8ee
8dd
4.b}
{8cc
=7
8b
8a
4.e
8f#
=8
4g
4d
8r}
{8a
=9
8b
8a
4.e
8a
=10
8b
8a
4.f#}
{8a
=11
4a
4b
4cc#
=12
2dd}
{8cc
8b
=13
4b
4.a
8ee
=14
8ee
8dd
4.b}
{8cc
=15
8b
8a
4.e
8f#
=16
2g}
{8cc
8b
=17
4b
4.a
8ee
=18
8ee
8dd
4.b}
{8cc
=19
8b
8a
4.e
8f#
=20
2g
8r}
==
!!!AGN: Liebes - Lied
!!!ONB: ESAC (Essen Associative Code) Database: ERK1
!!!AMT: simple triple
!!!AIN: vox
!!!EED: Helmut Schaffrath
!!!EEV: 1.0
*-
